X: 10903
M: 6/8
L: 1/8
K: F
(A/B/) |\
c2c cag | f2f f2g | agf edc | c>dc c>AB |\
c2c cag | f2f fga | bgf ede | (gff) f2 H|]
c/A/ |\
fac dfB | BdG AcF | GAB cAF | C2C "^D.C."C2 |]
fac dfB | BdG AcF | GAB cAF | C2C "^D.C."C2 |]



